X:1
T:Komm, lieber Mai
T:Fritzchen an den Mai
T:Wolfgang Amadeus Mozart
T:Christian Adolph Overbeck
T:© 2012
Z:© 2012
%%score { 1 | 2 }
L:1/8
M:6/8
K:F
V:1 treble nm="Piano"
V:2 bass 
V:1
 F | F2 A c2 f | c4 AF | B2 B (Bc)B | A3- A2 F | F2 A c2 f | c4 AF | G2 G (GA)G | F3- F2 A | %9
 B2 ^F (GA)B | (c2 A) f2 f | (fe)d (dc)=B | c3- c2 F | F2 A c2 f | (fdB) G2 d | (cd)c (BA)G | %16
 F3- F2 z |] %17
V:2
 A, | C2 F C2 B, | E4 EC | D2 G, G,2 G, | (C3 F2) A, | C2 F C2 B, | E4 EC | D2 G, G,2 G, | %8
 C3- C2 C | B,2 B, C2 D | (CA,C) F2 D | (B,C)B, (F,G,)G, | (A,3 E2) D | A,2 C E2 B, | B,A,F, E2 F | %15
 (CB,)C (B,A,)G, | C3- C2 z |] %17

